X:1
T:Beautiful Dreamer
T:BEAUTIFUL DREAMER 
T:(SERENADE)
T:Words and Music by STEPHEN C. FOSTER
T:Public Domain ©
T:Public Domain ©
T:Public Domain ©
T:Public Domain ©
C:Words and Music by STEPHEN C. FOSTER
Z:Public Domain ©
%%score 1 { 2 | 3 }
L:1/8
Q:1/4=114
M:9/8
K:Eb
V:1 treble nm="Melody"
V:2 treble nm="Piano" snm="Pno."
V:3 bass 
V:1
"^Moderato." z9 | z9 | z9 | z9 |: ede B3 G3 | F=EF c3- !breath!c3 | Bdc cBA AGF | %7
w: ||||Beau- ti- ful dream- er|wake un- to me, *|star- light and dew drop are wait- ing for|
w: ||||Beau- ti- ful dream- er|out on the sea, *|mer- maids are chant- ing the wild lo- re-|
 G3- G3- !breath!G3 | ede B3 G3 | F=EF c3- !breath!c3 | Bdc cBA AGF | E3- E3- !breath!E3 | %12
w: thee. * *|Sounds of the rude world|heard in the sky, *|Lull'd by the moon- light have all passed a-|way! * *|
w: lei. * *|O- ver the steam- let|va- pors are borne *|Wait- ing to fade at the bright co- ming|morn! * *|
 BAF D3 c3 | cBG E3- !breath!E3 | ede c3 f2 e | dec B3- B3 | ede B3 G3 | F=EF c3- !breath!c3 | %18
w: Beau- ti- ful dream- er,|queen of my song, *|List while I woo thee with|soft me- lo- dy, *|Gone are the cares of|life's bu- sy throng *|
w: Beau- ti- ful dream- er|beam on my heart *|E- ven as the morn on|the steamlet and sea, *|Then will all clouds of|sor- row de- part *|
 Bdc cBA AGF | E3- E3- !breath!E3 | cde eBG{B} AGF | E3- E3- E3 | z9 | z9 | z9 :| %25
w: Beau- ti- ful dream- er a- wake un- to|me! * *|Beau- ti- ful dream- er a- wake un- to|me! * *||||
w: Beau- ti- ful dream- er a- wake un- to|me! * *|Beau- ti- ful dream- er a- wake un- to|me! * *||||
V:2
{G} ede B3 G3 |{G} F=EF c3- c3 | Bag gf=e fcd | e3- e3- e3 |: z A,C GB,G, EB,G, | z A,C ACA, FCA, | %6
 z A,B, FB,A, DB,A, | z G,B, GB,G, EB,G, | z A,C GB,G, EB,G, | z A,C ACA, FCA, | %10
 z A,B, FB,A, DB,A, | z G,B, GB,G, EB,G, | z [B,DA][B,DA] z [B,DA][B,DA] z [B,DA][B,DA] | %13
 z [B,EG][B,EG] z [B,E][B,E] z [B,EG][B,EG] | z [CEF=A][CEFA] z [CEF][CEF] z [CEFA][CEFA] | %15
 z [DFB][DFB] z B,C DEF | z A,C GB,G, EB,G, | z A,C ACA, FCA, | z A,B, FB,A, DB,A, | %19
 z [G,B,G][G,B,G] z [G,=B,F][G,B,F] z [G,CE][G,CE] | [A,CE]3 [G,B,E]3 [A,B,D]3 |{/f} ede B3 G3 | %22
{G} F=EF c3- c3 | Bag gf=e fcd | e3- e3- e3 :| %25
V:3
 E,G,B, EB,G, EB,G, | A,,A,C FCA, FCA, | B,,A,B, DB,A, DB,A, | E,G,B, EB,G, E,3 |: [E,,E,]6 z3 | %5
 [A,,,A,,]6 z3 | [B,,,B,,]6 z3 | [E,,E,]6 z2 z | [E,,E,]6 z3 | [A,,,A,,]6 z3 | [B,,,B,,]6 z3 | %11
 [E,,E,]6 z2 z | B,,3 F,3 B,,3 | E,3 G,3 E,3 | F,3 =A,3 F,3 | B,3 B,,2 =A, _A,G,F, | [E,,E,]6 z3 | %17
 [A,,,A,,]6 z3 | [B,,,B,,]6 z3 | [E,,E,]3 [D,,D,]3 [C,,C,]3 | %20
"^ad lib." [A,,,A,,]3 [B,,,B,,]3 [B,,,B,,]3 |"^A tempo." E,G,B, EB,G, EB,G, | A,,A,C FCA, FCA, | %23
 B,,A,B, DB,A, DB,A, | E,G,B, EB,G, E,3 :| %25

